X: 1
T: Haapavesi valssi
C: Keith Murphy
R: waltz
Z: 2011 John Chambers <jc:trillian.mit.edu>
M: 3/4
L: 1/8
K: D
AcA |\
"D"cd dA cA | cd dA cd | "Em"e2 eg fd | "A7"e2 A2 Bc |\
"D"cd dA cA | cd dA cd | "Em"e2 eg "A7"e{d}c | "D"d3 :|
|: efg |\
"D"a2 ag fd | "G"g3 f- fg | "A7"eA Ag fg | e2 A2 fg |\
"D"a2 ag fd | "G"g3 f- fg | "Em"e2 eg "A7"e{d}c | "D"d3 :|

%%sep 1 1 500

